modules/feathericon/icons/bar.svg

<svg width="12" height="12" viewBox="0 0 12 12" xmlns="http://www.w3.org/2000/svg"><path d="M0 0h12v2H0V0zm0 5h12v2H0V5zm0 5h12v2H0v-2z" fill="#000" fill-rule="evenodd"/></svg>

<?xml version="1.0" encoding="UTF-8"?>
<svg width="12px" height="12px" viewBox="0 0 12 12" version="1.1" xmlns="http://www.w3.org/2000/svg" xmlns:xlink="http://www.w3.org/1999/xlink">
    <!-- Generator: sketchtool 48.1 (47250) - http://www.bohemiancoding.com/sketch -->
    <title>bar</title>
    <desc>Created with sketchtool.</desc>
    <defs></defs>
    <g id="web-app" stroke="none" stroke-width="1" fill="none" fill-rule="evenodd">
        <g id="bar" fill="#000000">
            <path d="M0,0 L12,0 L12,2 L0,2 L0,0 Z M0,5 L12,5 L12,7 L0,7 L0,5 Z M0,10 L12,10 L12,12 L0,12 L0,10 Z" id="Shape"></path>
        </g>
    </g>
</svg>
